svgs/regular/sensor.svg

<svg xmlns="http://www.w3.org/2000/svg" viewBox="0 0 448 512"><!-- Font Awesome Pro 6.0.0-alpha2 by @fontawesome - https://fontawesome.com License - https://fontawesome.com/license (Commercial License) --><path d="M200 128C186.75 128 176 138.75 176 152V264C176 277.25 186.75 288 200 288S224 277.25 224 264V152C224 138.75 213.25 128 200 128ZM120 128C106.75 128 96 138.75 96 152V264C96 277.25 106.75 288 120 288S144 277.25 144 264V152C144 138.75 133.25 128 120 128ZM384 32H64C28.625 32 0 60.625 0 96V416C0 451.375 28.625 480 64 480H384C419.375 480 448 451.375 448 416V96C448 60.625 419.375 32 384 32ZM400 416C400 424.875 392.875 432 384 432H64C55.125 432 48 424.875 48 416V96C48 87.125 55.125 80 64 80H384C392.875 80 400 87.125 400 96V416Z"/></svg>

<svg xmlns="http://www.w3.org/2000/svg" viewBox="0 0 448 512"><!--! Font Awesome Pro 6.0.0-alpha3 by @fontawesome - https://fontawesome.com License - https://fontawesome.com/license (Commercial License) --><path d="M200 128C186.8 128 176 138.8 176 152v112C176 277.2 186.8 288 200 288S224 277.2 224 264v-112C224 138.8 213.3 128 200 128zM120 128C106.8 128 96 138.8 96 152v112C96 277.2 106.8 288 120 288S144 277.2 144 264v-112C144 138.8 133.2 128 120 128zM384 32H64C28.62 32 0 60.62 0 96v320c0 35.38 28.62 64 64 64h320c35.38 0 64-28.62 64-64V96C448 60.62 419.4 32 384 32zM400 416c0 8.875-7.125 16-16 16H64c-8.875 0-16-7.125-16-16V96c0-8.875 7.125-16 16-16h320c8.875 0 16 7.125 16 16V416z"/></svg>
